X:242
T: ES WOLLT EIN MAEDCHEN FRUEH AUFSTEHN
N: E0121A
O: Europa, Mitteleuropa, Deutschland, Pommern
R: erzaehlendes Volks - Lied, Schalk -, Schelmen - Lied, Liebe
M: 2/4
L: 1/16
K: F
C2 | F2AFC2C2 | D2FDC2
C2 | D2D2B2E2 | F4G2
G2 | A2A2B2E2 | F4z2
C2 | A2F2A2c2 | B2A2G4
G2F2G2B2 | A2G2F2
G2 | A2A2B2E2 | F4z2

